svgs/solid_explorer.svg

<svg width="192" height="192" viewBox="0 0 192 192" fill="none" xmlns="http://www.w3.org/2000/svg">
<path d="M80 38L84.2426 33.7574C83.1174 32.6321 81.5913 32 80 32V38ZM96 54L91.7574 58.2426C92.8826 59.3679 94.4087 60 96 60V54ZM154 148H38V160H154V148ZM28 138V54H16V138H28ZM38 44H80V32H38V44ZM75.7574 42.2426L91.7574 58.2426L100.243 49.7574L84.2426 33.7574L75.7574 42.2426ZM164 70V138H176V70H164ZM96 60H154V48H96V60ZM38 148C32.4772 148 28 143.523 28 138H16C16 150.15 25.8497 160 38 160V148ZM154 160C166.15 160 176 150.15 176 138H164C164 143.523 159.523 148 154 148V160ZM176 70C176 57.8497 166.15 48 154 48V60C159.523 60 164 64.4772 164 70H176ZM28 54C28 48.4772 32.4772 44 38 44V32C25.8497 32 16 41.8497 16 54H28Z" fill="black"/>
<path d="M84.2654 79.2736L88.5081 83.5163C90.2556 81.7688 90.7528 79.1285 89.7608 76.865L84.2654 79.2736ZM55.2737 108.265L52.8651 113.761C55.1286 114.753 57.7688 114.255 59.5164 112.508L55.2737 108.265ZM75.4264 76.7989C76.8856 78.2581 77.9965 79.9172 78.7701 81.6822L89.7608 76.865C88.3973 73.7541 86.4439 70.8458 83.9117 68.3136L75.4264 76.7989ZM52.799 76.7989C59.0474 70.5505 69.178 70.5505 75.4264 76.7989L83.9117 68.3136C72.977 57.3789 55.2484 57.379 44.3137 68.3136L52.799 76.7989ZM52.799 99.4263C46.5506 93.1779 46.5506 83.0473 52.799 76.7989L44.3137 68.3136C33.379 79.2483 33.379 96.9769 44.3137 107.912L52.799 99.4263ZM57.6823 102.77C55.9173 101.996 54.2582 100.886 52.799 99.4263L44.3137 107.912C46.8459 110.444 49.7542 112.397 52.8651 113.761L57.6823 102.77ZM59.5164 112.508L88.5081 83.5163L80.0228 75.031L51.0311 104.023L59.5164 112.508Z" fill="black"/>
<path d="M42.5458 120.993L38.3032 116.751C36.5557 118.498 36.0584 121.139 37.0505 123.402L42.5458 120.993ZM71.5376 92.0018L73.9462 86.5064C71.6827 85.5143 69.0424 86.0116 67.2949 87.7591L71.5376 92.0018ZM51.3849 123.468C49.9257 122.009 48.8148 120.35 48.0412 118.585L37.0505 123.402C38.414 126.513 40.3674 129.421 42.8996 131.953L51.3849 123.468ZM74.0123 123.468C67.7639 129.717 57.6332 129.717 51.3849 123.468L42.8996 131.953C53.8343 142.888 71.5629 142.888 82.4976 131.953L74.0123 123.468ZM74.0123 100.841C80.2607 107.089 80.2607 117.22 74.0123 123.468L82.4976 131.953C93.4322 121.019 93.4322 103.29 82.4976 92.3555L74.0123 100.841ZM69.1289 97.4971C70.894 98.2707 72.5531 99.3816 74.0123 100.841L82.4976 92.3555C79.9653 89.8233 77.057 87.8699 73.9462 86.5064L69.1289 97.4971ZM67.2949 87.7591L38.3032 116.751L46.7885 125.236L75.7802 96.2444L67.2949 87.7591Z" fill="black"/>
</svg>

<svg xmlns="http://www.w3.org/2000/svg" width="192" height="192" fill="#000" xmlns:v="https://vecta.io/nano"><path d="M80 38l4.243-4.243A6 6 0 0 0 80 32v6zm16 16l-4.243 4.243A6 6 0 0 0 96 60v-6zm58 94H38v12h116v-12zM28 138V54H16v84h12zm10-94h42V32H38v12zm37.757-1.757l16 16 8.486-8.485-16-16-8.485 8.485zM164 70v68h12V70h-12zM96 60h58V48H96v12zm-58 88a10 10 0 0 1-10-10H16c0 12.15 9.85 22 22 22v-12zm116 12c12.15 0 22-9.85 22-22h-12a10 10 0 0 1-10 10v12zm22-90c0-12.15-9.85-22-22-22v12a10 10 0 0 1 10 10h12zM28 54a10 10 0 0 1 10-10V32c-12.15 0-22 9.85-22 22h12zm56.265 25.274l4.243 4.243a6 6 0 0 0 1.253-6.651l-5.495 2.409zm-28.992 28.991l-2.409 5.496a6 6 0 0 0 6.651-1.253l-4.243-4.243zm20.153-31.466c1.459 1.459 2.57 3.118 3.344 4.883l10.991-4.817a27.95 27.95 0 0 0-5.849-8.551l-8.485 8.485zm-22.627 0c6.248-6.248 16.379-6.248 22.627 0l8.485-8.485c-10.935-10.935-28.663-10.935-39.598 0l8.485 8.485zm0 22.627c-6.248-6.248-6.248-16.379 0-22.627l-8.485-8.485c-10.935 10.935-10.935 28.663 0 39.598l8.485-8.486zm4.883 3.344c-1.765-.774-3.424-1.884-4.883-3.344l-8.485 8.486c2.532 2.532 5.441 4.485 8.551 5.849l4.817-10.991zm1.834 9.738l28.992-28.992-8.485-8.485-28.992 28.992 8.485 8.485z"/><path d="M42.546 120.993l-4.243-4.242a6 6 0 0 0-1.253 6.651l5.495-2.409zm28.992-28.991l2.409-5.495a6 6 0 0 0-6.651 1.253l4.243 4.243zm-20.153 31.466a15.94 15.94 0 0 1-3.344-4.883l-10.991 4.817a27.94 27.94 0 0 0 5.849 8.551l8.485-8.485zm22.627 0c-6.248 6.249-16.379 6.249-22.627 0l-8.485 8.485c10.935 10.935 28.663 10.935 39.598 0l-8.485-8.485zm0-22.627c6.248 6.248 6.248 16.379 0 22.627l8.485 8.485c10.935-10.934 10.935-28.663 0-39.597l-8.485 8.485zm-4.883-3.344a15.94 15.94 0 0 1 4.883 3.344l8.485-8.485c-2.532-2.532-5.441-4.486-8.551-5.849l-4.817 10.991zm-1.834-9.738l-28.992 28.992 8.485 8.485L75.78 96.244l-8.485-8.485z"/></svg>
